material/.icons/material/book-remove.svg

<svg xmlns="http://www.w3.org/2000/svg" viewBox="0 0 24 24"><path d="M18 22H6a2 2 0 01-2-2V4a2 2 0 012-2h1v7l2.5-1.5L12 9V2h6a2 2 0 012 2v16a2 2 0 01-2 2m-1.59-2.17l1.42-1.42L16.41 17l1.42-1.41-1.42-1.42L15 15.59l-1.41-1.42-1.42 1.42L13.59 17l-1.42 1.41 1.42 1.42L15 18.41l1.41 1.42z"/></svg>

<?xml version="1.0" encoding="UTF-8"?><!DOCTYPE svg PUBLIC "-//W3C//DTD SVG 1.1//EN" "http://www.w3.org/Graphics/SVG/1.1/DTD/svg11.dtd"><svg xmlns="http://www.w3.org/2000/svg" xmlns:xlink="http://www.w3.org/1999/xlink" version="1.1" id="mdi-book-remove" width="24" height="24" viewBox="0 0 24 24"><path d="M18,22H6A2,2 0 0,1 4,20V4C4,2.89 4.9,2 6,2H7V9L9.5,7.5L12,9V2H18A2,2 0 0,1 20,4V20A2,2 0 0,1 18,22M16.41,19.83L17.83,18.41L16.41,17L17.83,15.59L16.41,14.17L15,15.59L13.59,14.17L12.17,15.59L13.59,17L12.17,18.41L13.59,19.83L15,18.41L16.41,19.83Z" /></svg>
